resources/icons/16px/layout-three-rows.svg

<svg width="16" height="16" viewBox="0 0 16 16" fill="none" xmlns="http://www.w3.org/2000/svg">
<path d="M15 12C15.5523 12 16 12.4477 16 13V15C16 15.5523 15.5523 16 15 16H1C0.447715 16 0 15.5523 0 15V13C0 12.4477 0.447715 12 1 12H15Z" fill="black"/>
<path d="M15 6C15.5523 6 16 6.44772 16 7V9C16 9.55228 15.5523 10 15 10H1C0.447715 10 0 9.55228 0 9V7C0 6.44772 0.447715 6 1 6H15Z" fill="black"/>
<path d="M15 0C15.5523 0 16 0.447715 16 1V3C16 3.55228 15.5523 4 15 4H1C0.447715 4 0 3.55228 0 3V1C0 0.447715 0.447715 0 1 0H15Z" fill="black"/>
</svg>

<svg xmlns="http://www.w3.org/2000/svg" viewBox="0 0 16 16">
  <path d="M15 12a1 1 0 0 1 1 1v2a1 1 0 0 1-1 1H1a1 1 0 0 1-1-1v-2a1 1 0 0 1 1-1zM15 6a1 1 0 0 1 1 1v2a1 1 0 0 1-1 1H1a1 1 0 0 1-1-1V7a1 1 0 0 1 1-1zM15 0a1 1 0 0 1 1 1v2a1 1 0 0 1-1 1H1a1 1 0 0 1-1-1V1a1 1 0 0 1 1-1z"/>
</svg>
